markup/sourceimages/icon10.svg

<svg xmlns="http://www.w3.org/2000/svg" width="601" height="357"><path fill-rule="evenodd" fill="#F1F7FC" d="M601 246.342v82.983c0 15.259-12.392 27.673-27.623 27.673H27.622C12.391 356.998 0 344.583 0 329.325V27.676C0 12.416 12.392.001 27.622.001h545.755C588.608.001 601 12.416 601 27.676v82.983c0 7.857-4.038 15.241-10.54 19.27-16.969 10.514-27.099 28.672-27.099 48.572 0 19.901 10.13 38.059 27.1 48.573 6.501 4.027 10.539 11.411 10.539 19.268zm-17.607 0c0-1.794-.842-3.429-2.194-4.267-22.194-13.752-35.444-37.518-35.444-63.575 0-26.057 13.25-49.823 35.444-63.574 1.352-.84 2.194-2.474 2.194-4.269V27.673c0-5.532-4.493-10.032-10.016-10.032h-94.702v.606c0 4.871-3.94 8.82-8.803 8.82-4.864 0-8.804-3.949-8.804-8.82v-.606H27.622c-5.522 0-10.015 4.501-10.015 10.032v301.652c0 5.533 4.493 10.034 10.015 10.034h433.446v-.607c0-4.871 3.94-8.82 8.804-8.82 4.863 0 8.803 3.949 8.803 8.82v.607h94.702c5.523 0 10.016-4.502 10.016-10.034v-82.983zm-113.521 63.522c-4.864 0-8.804-3.949-8.804-8.819v-18.853c0-4.871 3.94-8.82 8.804-8.82 4.863 0 8.803 3.949 8.803 8.82v18.853c0 4.87-3.94 8.819-8.803 8.819zm0-56.558c-4.864 0-8.804-3.949-8.804-8.82v-18.853c0-4.872 3.94-8.819 8.804-8.819 4.863 0 8.803 3.949 8.803 8.819v18.853c0 4.871-3.94 8.82-8.803 8.82zm0-56.559c-4.864 0-8.804-3.948-8.804-8.82v-18.852c0-4.872 3.94-8.82 8.804-8.82 4.863 0 8.803 3.949 8.803 8.82v18.852c0 4.872-3.94 8.82-8.803 8.82zm0-56.561c-4.864 0-8.804-3.949-8.804-8.819v-18.853c0-4.871 3.94-8.82 8.804-8.82 4.863 0 8.803 3.949 8.803 8.82v18.853c0 4.87-3.94 8.819-8.803 8.819zm0-56.557c-4.864 0-8.804-3.949-8.804-8.82V55.956c0-4.872 3.94-8.819 8.804-8.819 4.863 0 8.803 3.948 8.803 8.819v18.853c0 4.871-3.94 8.82-8.803 8.82zM308.167 206.203l12.702 50.579c2.293 9.13-1.138 18.606-8.741 24.139-7.603 5.533-17.658 5.875-25.618.869l-44.092-27.732-44.092 27.73a22.815 22.815 0 0 1-12.174 3.532c-4.718 0-9.423-1.473-13.443-4.399-7.604-5.534-11.034-15.01-8.742-24.14l12.701-50.579-39.95-33.439c-7.213-6.037-9.996-15.723-7.092-24.677 2.904-8.954 10.84-15.153 20.215-15.789l51.942-3.528 19.399-48.397c3.503-8.738 11.838-14.382 21.237-14.382s17.733 5.645 21.235 14.382l19.399 48.397 51.942 3.528c9.376.637 17.311 6.835 20.215 15.788 2.905 8.955.122 18.641-7.091 24.678l-39.952 33.44zm30.298-52.667c-.331-1.022-1.448-3.422-4.661-3.64l-57.456-3.903a8.805 8.805 0 0 1-7.573-5.513l-21.46-53.536c-1.199-2.992-3.823-3.315-4.895-3.315-1.073 0-3.697.323-4.897 3.316l-21.459 53.535a8.805 8.805 0 0 1-7.573 5.513l-57.456 3.903c-3.211.219-4.329 2.619-4.662 3.641-.332 1.022-.836 3.62 1.635 5.689l44.191 36.991a8.83 8.83 0 0 1 2.894 8.92l-14.05 55.948c-.785 3.128 1.148 4.934 2.015 5.565.869.632 3.183 1.914 5.907.201l48.773-30.675a8.793 8.793 0 0 1 9.361 0l48.774 30.675c2.728 1.715 5.04.431 5.906-.201.868-.631 2.801-2.437 2.016-5.564l-14.051-55.948a8.827 8.827 0 0 1 2.894-8.92l44.192-36.992c2.47-2.068 1.966-4.668 1.635-5.69z"/></svg>

<svg 
 xmlns="http://www.w3.org/2000/svg"
 xmlns:xlink="http://www.w3.org/1999/xlink"
 width="601px" height="357px">
<path fill-rule="evenodd"  fill="rgb(241, 247, 252)"
 d="M601.000,246.342 L601.000,329.325 C601.000,344.584 588.608,356.998 573.377,356.998 L27.622,356.998 C12.391,356.998 -0.000,344.583 -0.000,329.325 L-0.000,27.676 C-0.000,12.416 12.392,0.001 27.622,0.001 L573.377,0.001 C588.608,0.001 601.000,12.416 601.000,27.676 L601.000,110.659 C601.000,118.516 596.962,125.900 590.460,129.929 C573.491,140.443 563.361,158.601 563.361,178.501 C563.361,198.402 573.491,216.560 590.461,227.074 C596.962,231.101 601.000,238.485 601.000,246.342 ZM583.393,246.342 C583.393,244.548 582.551,242.913 581.199,242.075 C559.005,228.323 545.755,204.557 545.755,178.500 C545.755,152.443 559.005,128.677 581.199,114.926 C582.551,114.086 583.393,112.452 583.393,110.657 L583.393,27.673 C583.393,22.141 578.900,17.641 573.377,17.641 L478.675,17.641 L478.675,18.247 C478.675,23.118 474.735,27.067 469.872,27.067 C465.008,27.067 461.068,23.118 461.068,18.247 L461.068,17.641 L27.622,17.641 C22.100,17.641 17.607,22.142 17.607,27.673 L17.607,329.325 C17.607,334.858 22.100,339.359 27.622,339.359 L461.068,339.359 L461.068,338.752 C461.068,333.881 465.008,329.932 469.872,329.932 C474.735,329.932 478.675,333.881 478.675,338.752 L478.675,339.359 L573.377,339.359 C578.900,339.359 583.393,334.857 583.393,329.325 L583.393,246.342 ZM469.872,309.864 C465.008,309.864 461.068,305.915 461.068,301.045 L461.068,282.192 C461.068,277.321 465.008,273.372 469.872,273.372 C474.735,273.372 478.675,277.321 478.675,282.192 L478.675,301.045 C478.675,305.915 474.735,309.864 469.872,309.864 ZM469.872,253.306 C465.008,253.306 461.068,249.357 461.068,244.486 L461.068,225.633 C461.068,220.761 465.008,216.814 469.872,216.814 C474.735,216.814 478.675,220.763 478.675,225.633 L478.675,244.486 C478.675,249.357 474.735,253.306 469.872,253.306 ZM469.872,196.747 C465.008,196.747 461.068,192.799 461.068,187.927 L461.068,169.075 C461.068,164.203 465.008,160.255 469.872,160.255 C474.735,160.255 478.675,164.204 478.675,169.075 L478.675,187.927 C478.675,192.799 474.735,196.747 469.872,196.747 ZM469.872,140.186 C465.008,140.186 461.068,136.237 461.068,131.367 L461.068,112.514 C461.068,107.643 465.008,103.694 469.872,103.694 C474.735,103.694 478.675,107.643 478.675,112.514 L478.675,131.367 C478.675,136.237 474.735,140.186 469.872,140.186 ZM469.872,83.629 C465.008,83.629 461.068,79.680 461.068,74.809 L461.068,55.956 C461.068,51.084 465.008,47.137 469.872,47.137 C474.735,47.137 478.675,51.085 478.675,55.956 L478.675,74.809 C478.675,79.680 474.735,83.629 469.872,83.629 ZM308.167,206.203 L320.869,256.782 C323.162,265.912 319.731,275.388 312.128,280.921 C304.525,286.454 294.470,286.796 286.510,281.790 L242.418,254.058 L198.326,281.788 C194.575,284.149 190.358,285.320 186.152,285.320 C181.434,285.320 176.729,283.847 172.709,280.921 C165.105,275.387 161.675,265.911 163.967,256.781 L176.668,206.202 L136.718,172.763 C129.505,166.726 126.722,157.040 129.626,148.086 C132.530,139.132 140.466,132.933 149.841,132.297 L201.783,128.769 L221.182,80.372 C224.685,71.634 233.020,65.990 242.419,65.990 C251.818,65.990 260.152,71.635 263.654,80.372 L283.053,128.769 L334.995,132.297 C344.371,132.934 352.306,139.132 355.210,148.085 C358.115,157.040 355.332,166.726 348.119,172.763 L308.167,206.203 ZM338.465,153.536 C338.134,152.514 337.017,150.114 333.804,149.896 L276.348,145.993 C272.977,145.764 270.034,143.621 268.775,140.480 L247.315,86.944 C246.116,83.952 243.492,83.629 242.420,83.629 C241.347,83.629 238.723,83.952 237.523,86.945 L216.064,140.480 C214.805,143.621 211.862,145.764 208.491,145.993 L151.035,149.896 C147.824,150.115 146.706,152.515 146.373,153.537 C146.041,154.559 145.537,157.157 148.008,159.226 L192.199,196.217 C194.792,198.388 195.917,201.853 195.093,205.137 L181.043,261.085 C180.258,264.213 182.191,266.019 183.058,266.650 C183.927,267.282 186.241,268.564 188.965,266.851 L237.738,236.176 C240.600,234.377 244.237,234.377 247.099,236.176 L295.873,266.851 C298.601,268.566 300.913,267.282 301.779,266.650 C302.647,266.019 304.580,264.213 303.795,261.086 L289.744,205.138 C288.920,201.855 290.043,198.388 292.638,196.218 L336.830,159.226 C339.300,157.158 338.796,154.558 338.465,153.536 Z"/>
</svg>
